%
(KTYPE-BOTTOM-PLATE)
(LASAGNA)
(MACHINE)
(  DESCRIPTION GENERIC 3-AXIS)
(T1  D=9.525 CR=0. - ZMIN=-3.1 - FLAT END MILL)
(T2  D=6.35 CR=0. - ZMIN=-1.85 - FLAT END MILL)
(T3  D=6.35 CR=0. TAPER=90DEG - ZMIN=-4. - SPOT DRILL)
(T4  D=8.839 CR=0. TAPER=118DEG - ZMIN=-5.656 - DRILL)
(T6  D=3.175 CR=0. TAPER=118DEG - ZMIN=-4.154 - DRILL)
N10 G90 G94 G17 G91.1
N15 G21
N20 G53 G0 Z0.
(FACE1)
N25 M9
N30 T1 M6
N35 T2
N40 S5000 M3
N45 G54
N50 M8
N60 G0 X376.462 Y4.175
N65 G43 Z15. H1
N70 G0 Z5.
N75 G1 Z-0.047 F1000.
N80 G18 G3 X375.51 Z-1. I-0.953 K0.
N85 G1 X370.271
N90 X0.
N95 G17 G2 Y13.021 I0. J4.423
N100 G1 X370.271
N105 G3 Y21.868 I0. J4.423
N110 G1 X0.
N115 G2 Y30.715 I0. J4.423
N120 G1 X370.271
N125 G3 Y39.561 I0. J4.423
N130 G1 X0.
N135 G2 Y48.408 I0. J4.423
N140 G1 X370.271
N145 G3 Y57.255 I0. J4.423
N150 G1 X0.
N155 G2 Y66.102 I0. J4.423
N160 G1 X370.271
N165 G3 Y74.948 I0. J4.423
N170 G1 X0.
N175 G2 Y83.795 I0. J4.423
N180 G1 X370.271
N185 G3 Y92.642 I0. J4.423
N190 G1 X0.
N195 G2 Y101.488 I0. J4.423
N200 G1 X370.271
N205 G3 Y110.335 I0. J4.423
N210 G1 X0.
N215 G2 Y119.182 I0. J4.423
N220 G1 X370.271
N225 G3 Y128.028 I0. J4.423
N230 G1 X0.
N235 G2 Y136.875 I0. J4.423
N240 G1 X370.271
N245 G18 G2 X371.224 Z-0.047 I0. K0.953
N250 G0 Z15.
N255 G17
(2D CONTOUR1)
N260 M8
N265 G0 X362.287 Y-7.673
N270 Z15.
N275 Z5.
N280 G1 Z2. F333.33
N285 Z-2.148
N290 G19 G3 Y-6.72 Z-3.1 J0.953 K0.
N295 G1 Y-5.767 F1000.
N300 G17 G3 X361.334 Y-4.815 I-0.952 J0.
N305 G1 X8.938
N310 G2 X-4.815 Y8.938 I0. J13.753
N315 G1 Y132.553
N320 G2 X8.938 Y146.305 I13.752 J0.
N325 G1 X361.334
N330 G2 X375.086 Y132.553 I0. J-13.752
N335 G1 Y8.938
N340 G2 X361.334 Y-4.815 I-13.752 J0.
N345 X360.62 Y-4.339 I0. J0.774
N350 G3 X359.905 Y-3.862 I-0.714 J-0.298
N355 G1 X8.938
N360 G2 X-3.862 Y8.938 I0. J12.8
N365 G1 Y132.553
N370 G2 X8.938 Y145.352 I12.8 J0.
N375 G1 X361.334
N380 G2 X374.134 Y132.553 I0. J-12.799
N385 G1 Y8.938
N390 G2 X361.334 Y-3.862 I-12.8 J0.
N395 G1 X359.905
N400 G3 X358.953 Y-4.815 I0. J-0.953
N405 G1 Y-5.767
N410 G19 G2 Y-6.72 Z-2.148 J0. K0.952
N415 G0 Z15.
N420 G17
(2D CONTOUR2)
N425 M8
N430 G0 X362.287 Y-6.62
N435 Z15.
N440 Z5.
N445 G1 Z2. F333.33
N450 Z-2.048
N455 G19 G3 Y-5.668 Z-3. J0.952 K0.
N460 G1 Y-4.715 F1000.
N465 G17 G3 X361.334 Y-3.763 I-0.953 J0.
N470 G1 X8.938
N475 G2 X-3.763 Y8.938 I0. J12.7
N480 G1 Y132.553
N485 G2 X8.938 Y145.253 I12.7 J0.
N490 G1 X361.334
N495 G2 X374.034 Y132.553 I0. J-12.7
N500 G1 Y8.938
N505 G2 X361.334 Y-3.763 I-12.7 J0.
N510 G3 X360.382 Y-4.715 I0. J-0.953
N515 G1 Y-5.668
N520 G19 G2 Y-6.62 Z-2.048 J0. K0.953
N525 G0 Z15.
N530 G17
N535 M5
N540 G53 G0 Z0.
(2D POCKET1)
N545 M9
N550 M1
N555 T2 M6
N560 T3
N565 S10000 M3
N570 G54
N575 M8
N585 G0 X195.568 Y129.415
N590 G43 Z15. H2
N595 G0 Z5.
N600 G1 Z3.135 F1371.6
N605 G18 G2 X196.18 Z2.5 I0.635 K0. F457.2
N610 G1 X198.636 Z2.414
N615 G17 G3 Y131.565 Z2.296 I0. J1.075
N620 G1 X171.636 Z1.353
N625 G3 Y129.415 Z1.236 I0. J-1.075
N630 G1 X198.636 Z0.293
N635 G3 Y131.565 Z0.175 I0. J1.075
N640 G1 X171.636 Z-0.768
N645 G3 Y129.415 Z-0.886 I0. J-1.075
N650 G1 X198.636 Z-1.829
N655 G3 X199.208 Y129.58 Z-1.85 I0. J1.075
N660 X198.636 Y131.565 I-0.572 J0.91 F1371.6
N665 G1 X171.636
N670 G3 Y129.415 I0. J-1.075
N675 G1 X198.636
N680 G3 X199.208 Y129.58 I0. J1.075
N685 X199.356 Y129.708 Z-1.819 I-0.338 J0.538
N690 X199.449 Y129.857 Z-1.729 I-0.485 J0.409
N695 X199.492 Y129.991 Z-1.588 I-0.579 J0.26
N700 X199.504 Y130.08 Z-1.411 I-0.622 J0.127
N705 X199.505 Y130.111 Z-1.215 I-0.634 J0.037
N710 G0 Z5.
N715 X308.831 Y131.521
N720 G1 Z3.135 F1371.6
N725 G3 X308.803 Y131.512 Z2.943 I0.305 J-1.031 F457.2
N730 X308.722 Y131.482 Z2.769 I0.333 J-1.022
N735 X308.601 Y131.422 Z2.629 I0.414 J-0.992
N740 X308.46 Y131.326 Z2.536 I0.535 J-0.932
N745 X308.323 Y131.194 Z2.5 I0.676 J-0.836
N750 X309.136 Y129.415 Z2.414 I0.813 J-0.704
N755 G1 X336.136 Z1.471
N760 G3 Y131.565 Z1.353 I0. J1.075
N765 G1 X309.136 Z0.411
N770 G3 Y129.415 Z0.293 I0. J-1.075
N775 G1 X336.136 Z-0.65
N780 G3 Y131.565 Z-0.768 I0. J1.075
N785 G1 X309.136 Z-1.711
N790 G3 Y129.415 Z-1.829 I0. J-1.075
N795 G1 X309.739 Z-1.85
N800 X336.136 F1371.6
N805 G3 Y131.565 I0. J1.075
N810 G1 X309.136
N815 G3 Y129.415 I0. J-1.075
N820 G1 X309.739
N825 G3 X309.932 Y129.445 Z-1.819 I0. J0.635
N830 X310.091 Y129.522 Z-1.729 I-0.193 J0.605
N835 X310.199 Y129.612 Z-1.588 I-0.352 J0.528
N840 X310.256 Y129.681 Z-1.411 I-0.459 J0.438
N845 X310.274 Y129.707 Z-1.215 I-0.517 J0.369
N850 G0 Z5.
N855 X312.204 Y12.075
N860 G1 Z3.135 F1371.6
N865 G18 G3 X311.592 Z2.5 I-0.635 K0. F457.2
N870 G1 X309.136 Z2.414
N875 G17 G3 Y9.925 Z2.296 I0. J-1.075
N880 G1 X336.136 Z1.353
N885 G3 Y12.075 Z1.236 I0. J1.075
N890 G1 X309.136 Z0.293
N895 G3 Y9.925 Z0.175 I0. J-1.075
N900 G1 X336.136 Z-0.768
N905 G3 Y12.075 Z-0.886 I0. J1.075
N910 G1 X309.136 Z-1.829
N915 G3 X308.564 Y11.91 Z-1.85 I0. J-1.075
N920 X309.136 Y9.925 I0.572 J-0.91 F1371.6
N925 G1 X336.136
N930 G3 Y12.075 I0. J1.075
N935 G1 X309.136
N940 G3 X308.564 Y11.91 I0. J-1.075
N945 X308.416 Y11.782 Z-1.819 I0.338 J-0.538
N950 X308.323 Y11.633 Z-1.729 I0.485 J-0.409
N955 X308.28 Y11.499 Z-1.588 I0.579 J-0.26
N960 X308.268 Y11.41 Z-1.411 I0.622 J-0.127
N965 X308.267 Y11.379 Z-1.215 I0.634 J-0.037
N970 G0 Z5.
N975 X198.941 Y9.969
N980 G1 Z3.135 F1371.6
N985 G3 X198.969 Y9.978 Z2.943 I-0.305 J1.031 F457.2
N990 X199.05 Y10.008 Z2.769 I-0.333 J1.022
N995 X199.171 Y10.068 Z2.629 I-0.414 J0.992
N1000 X199.312 Y10.164 Z2.536 I-0.535 J0.932
N1005 X199.449 Y10.296 Z2.5 I-0.676 J0.836
N1010 X198.636 Y12.075 Z2.414 I-0.813 J0.704
N1015 G1 X171.636 Z1.471
N1020 G3 Y9.925 Z1.353 I0. J-1.075
N1025 G1 X198.636 Z0.411
N1030 G3 Y12.075 Z0.293 I0. J1.075
N1035 G1 X171.636 Z-0.65
N1040 G3 Y9.925 Z-0.768 I0. J-1.075
N1045 G1 X198.636 Z-1.711
N1050 G3 Y12.075 Z-1.829 I0. J1.075
N1055 G1 X198.033 Z-1.85
N1060 X171.636 F1371.6
N1065 G3 Y9.925 I0. J-1.075
N1070 G1 X198.636
N1075 G3 Y12.075 I0. J1.075
N1080 G1 X198.033
N1085 G3 X197.84 Y12.045 Z-1.819 I0. J-0.635
N1090 X197.681 Y11.968 Z-1.729 I0.193 J-0.605
N1095 X197.573 Y11.878 Z-1.588 I0.352 J-0.528
N1100 X197.516 Y11.809 Z-1.411 I0.459 J-0.438
N1105 X197.498 Y11.783 Z-1.215 I0.517 J-0.369
N1110 G0 Z5.
N1115 X58.067 Y9.925
N1120 G1 Z3.135 F1371.6
N1125 G18 G2 X58.68 Z2.5 I0.635 K0. F457.2
N1130 G1 X61.136 Z2.414
N1135 G17 G3 Y12.075 Z2.296 I0. J1.075
N1140 G1 X34.136 Z1.353
N1145 G3 Y9.925 Z1.236 I0. J-1.075
N1150 G1 X61.136 Z0.293
N1155 G3 Y12.075 Z0.175 I0. J1.075
N1160 G1 X34.136 Z-0.768
N1165 G3 Y9.925 Z-0.886 I0. J-1.075
N1170 G1 X61.136 Z-1.829
N1175 G3 X61.708 Y10.09 Z-1.85 I0. J1.075
N1180 X61.136 Y12.075 I-0.572 J0.91 F1371.6
N1185 G1 X34.136
N1190 G3 Y9.925 I0. J-1.075
N1195 G1 X61.136
N1200 G3 X61.708 Y10.09 I0. J1.075
N1205 X61.855 Y10.218 Z-1.819 I-0.338 J0.538
N1210 X61.949 Y10.367 Z-1.729 I-0.485 J0.409
N1215 X61.992 Y10.501 Z-1.588 I-0.579 J0.26
N1220 X62.004 Y10.59 Z-1.411 I-0.622 J0.127
N1225 X62.005 Y10.621 Z-1.215 I-0.634 J0.037
N1230 G0 Z5.
N1235 X58.067 Y129.415
N1240 G1 Z3.135 F1371.6
N1245 G18 G2 X58.68 Z2.5 I0.635 K0. F457.2
N1250 G1 X61.136 Z2.414
N1255 G17 G3 Y131.565 Z2.296 I0. J1.075
N1260 G1 X34.136 Z1.353
N1265 G3 Y129.415 Z1.236 I0. J-1.075
N1270 G1 X61.136 Z0.293
N1275 G3 Y131.565 Z0.175 I0. J1.075
N1280 G1 X34.136 Z-0.768
N1285 G3 Y129.415 Z-0.886 I0. J-1.075
N1290 G1 X61.136 Z-1.829
N1295 G3 X61.708 Y129.58 Z-1.85 I0. J1.075
N1300 X61.136 Y131.565 I-0.572 J0.91 F1371.6
N1305 G1 X34.136
N1310 G3 Y129.415 I0. J-1.075
N1315 G1 X61.136
N1320 G3 X61.708 Y129.58 I0. J1.075
N1325 X61.855 Y129.708 Z-1.819 I-0.338 J0.538
N1330 X61.949 Y129.857 Z-1.729 I-0.485 J0.409
N1335 X61.992 Y129.991 Z-1.588 I-0.579 J0.26
N1340 X62.004 Y130.08 Z-1.411 I-0.622 J0.127
N1345 X62.005 Y130.111 Z-1.215 I-0.634 J0.037
N1350 G0 Z15.
N1360 M5
N1365 G53 Z0.
(DRILL1)
N1370 M9
N1375 M1
N1380 T3 M6
N1385 T4
N1390 S10000 M3
N1395 G54
N1400 M8
N1410 G0 X79.884 Y121.133
N1415 G43 Z15. H3
N1425 G0 Z5.
N1430 G98 G81 X79.884 Y121.133 Z-1.5 R3.875 F762.
N1435 G80
N1445 G0 X15.438 Y85.035 Z5.
N1450 G81 X15.438 Y85.035 Z-1.5 R4. F762.
N1455 X18.448 Y32.645
N1460 X60.136 Y25.745
N1465 X127.978 Y18.364
N1470 X213.708
N1475 X310.135 Y25.745
N1480 G80
N1490 G0 X351.823 Y32.645 Z5.
N1495 G81 X351.823 Y32.645 Z-1.5 R3.875 F762.
N1500 G80
N1510 G0 X352.236 Y80.133 Z5.
N1515 G81 X352.236 Y80.133 Z-1.5 R4. F762.
N1520 X356.268 Y111.697
N1525 X247.048 Y121.133
N1530 G80
N1535 G0 Z15.
(2D CHAMFER1)
N1545 M8
N1550 G0 X361.334 Y0.365
N1555 Z15.
N1560 Z5.
N1565 G1 Z2. F762.
N1570 Z-3.
N1575 Y1. F1524.
N1580 X8.938
N1585 G2 X1. Y8.938 I0. J7.938
N1590 G1 Y132.553
N1595 G2 X8.938 Y140.49 I7.937 J0.
N1600 G1 X361.334
N1605 G2 X369.271 Y132.553 I0. J-7.937
N1610 G1 Y8.938
N1615 G2 X361.334 Y1. I-7.937 J0.
N1620 G1 Y0.365
N1625 G0 Z15.
N1635 M5
N1640 G53 Z0.
(DRILL2)
N1645 M9
N1650 M1
N1655 T4 M6
N1660 T6
N1665 S3290 M3
N1670 G54
N1675 M8
N1685 G0 X60.136 Y25.745
N1690 G43 Z15. H4
N1700 G0 Z5.
N1705 G81 X60.136 Y25.745 Z-5.656 R2.5 F736.6
N1710 X310.135
N1715 G80
N1720 G0 Z15.
N1730 M5
N1735 G53 Z0.
(DRILL3)
N1740 M9
N1745 M1
N1750 T6 M6
N1755 T3
N1760 S9170 M3
N1765 G54
N1770 M8
N1780 G0 X79.884 Y121.133
N1785 G43 Z15. H6
N1795 G0 Z5.
N1800 G81 X79.884 Y121.133 Z-4.154 R2. F728.98
N1805 X15.438 Y85.035
N1810 X18.448 Y32.645
N1815 X127.978 Y18.364
N1820 X213.708
N1825 X247.048 Y121.133
N1830 X356.268 Y111.697
N1835 X352.236 Y80.133
N1840 X351.823 Y32.645
N1845 G80
N1850 G0 Z15.
N1860 M5
N1865 G53 Z0.
(DRILL4)
N1870 M9
N1875 M1
N1880 T3 M6
N1885 T1
N1890 S3000 M3
N1895 G54
N1900 M8
N1910 G0 X79.884 Y121.133
N1915 G43 Z15. H3
N1925 G0 Z5.
N1930 G81 X79.884 Y121.133 Z-4. R3.875 F93.
N1935 G80
N1945 G0 X15.438 Y85.035 Z5.
N1950 G81 X15.438 Y85.035 Z-4. R4. F93.
N1955 X18.448 Y32.645
N1960 X127.978 Y18.364
N1965 X213.708
N1970 X247.048 Y121.133
N1975 X356.268 Y111.697
N1980 G80
N1990 G0 X351.823 Y32.645 Z5.
N1995 G81 X351.823 Y32.645 Z-4. R3.875 F93.
N2000 G80
N2005 G0 Z15.
N2015 M9
N2020 G53 Z0.
N2025 M30
%
